dist/assets/images/brand.svg

<svg xmlns="http://www.w3.org/2000/svg" width="40" height="40" viewBox="0 0 40 40" fill="none">
  <path d="M36.101 17.4L34.4676 24.3666C33.0676 30.3833 30.301 32.8166 25.101 32.3166C24.2676 32.25 23.3676 32.1 22.401 31.8666L19.601 31.2C12.651 29.55 10.501 26.1166 12.1343 19.15L13.7676 12.1666C14.101 10.75 14.501 9.51664 15.001 8.49997C16.951 4.46664 20.2676 3.38331 25.8343 4.69997L28.6176 5.34997C35.601 6.98331 37.7343 10.4333 36.101 17.4Z" stroke="url(#paint0_linear_205_85)" stroke-width="2" stroke-linecap="round" stroke-linejoin="round"/>
  <path d="M25.1006 32.3167C24.0672 33.0167 22.7672 33.6 21.1839 34.1167L18.5506 34.9833C11.9339 37.1167 8.45057 35.3333 6.30057 28.7167L4.16724 22.1333C2.0339 15.5167 3.80057 12.0167 10.4172 9.88333L13.0506 9.01667C13.7339 8.8 14.3839 8.61667 15.0006 8.5C14.5006 9.51667 14.1006 10.75 13.7672 12.1667L12.1339 19.15C10.5006 26.1167 12.6506 29.55 19.6006 31.2L22.4006 31.8667C23.3672 32.1 24.2672 32.25 25.1006 32.3167Z" stroke="url(#paint1_linear_205_85)" stroke-width="2" stroke-linecap="round" stroke-linejoin="round"/>
  <path d="M21.0664 14.2167L29.1497 16.2667" stroke="url(#paint2_linear_205_85)" stroke-width="2" stroke-linecap="round" stroke-linejoin="round"/>
  <path d="M19.4336 20.667L24.2669 21.9003" stroke="url(#paint3_linear_205_85)" stroke-width="2" stroke-linecap="round" stroke-linejoin="round"/>
  <defs>
    <linearGradient id="paint0_linear_205_85" x1="54.0482" y1="32.5054" x2="12.949" y2="-3.73917" gradientUnits="userSpaceOnUse">
      <stop stop-color="#D61607"/>
      <stop offset="0.489583" stop-color="#F87717"/>
      <stop offset="1" stop-color="#FECE24"/>
    </linearGradient>
    <linearGradient id="paint1_linear_205_85" x1="40.2858" y1="35.9585" x2="1.20045" y2="4.96312" gradientUnits="userSpaceOnUse">
      <stop stop-color="#D61607"/>
      <stop offset="0.489583" stop-color="#F87717"/>
      <stop offset="1" stop-color="#FECE24"/>
    </linearGradient>
    <linearGradient id="paint2_linear_205_85" x1="34.7829" y1="16.2758" x2="33.3419" y2="10.6228" gradientUnits="userSpaceOnUse">
      <stop stop-color="#D61607"/>
      <stop offset="0.489583" stop-color="#F87717"/>
      <stop offset="1" stop-color="#FECE24"/>
    </linearGradient>
    <linearGradient id="paint3_linear_205_85" x1="27.6352" y1="21.9058" x2="26.7636" y2="18.5074" gradientUnits="userSpaceOnUse">
      <stop stop-color="#D61607"/>
      <stop offset="0.489583" stop-color="#F87717"/>
      <stop offset="1" stop-color="#FECE24"/>
    </linearGradient>
  </defs>
</svg>

<svg xmlns="http://www.w3.org/2000/svg" width="40" height="40" fill="none"><path d="m36.101 17.4-1.633 6.967c-1.4 6.016-4.167 8.45-9.367 7.95a17.504 17.504 0 0 1-2.7-.45l-2.8-.667c-6.95-1.65-9.1-5.083-7.467-12.05l1.634-6.983C14.1 10.75 14.5 9.517 15 8.5c1.95-4.033 5.267-5.117 10.833-3.8l2.784.65C35.6 6.983 37.734 10.433 36.1 17.4Z" stroke="url(#a)" stroke-width="2" stroke-linecap="round" stroke-linejoin="round"/><path d="M25.1 32.317c-1.033.7-2.333 1.283-3.916 1.8l-2.633.866c-6.617 2.134-10.1.35-12.25-6.266l-2.134-6.584c-2.133-6.616-.366-10.116 6.25-12.25l2.634-.866c.683-.217 1.333-.4 1.95-.517-.5 1.017-.9 2.25-1.234 3.667l-1.633 6.983c-1.633 6.967.517 10.4 7.467 12.05l2.8.667c.966.233 1.866.383 2.7.45Z" stroke="url(#b)" stroke-width="2" stroke-linecap="round" stroke-linejoin="round"/><path d="m21.066 14.217 8.084 2.05" stroke="url(#c)" stroke-width="2" stroke-linecap="round" stroke-linejoin="round"/><path d="m19.434 20.667 4.833 1.233" stroke="url(#d)" stroke-width="2" stroke-linecap="round" stroke-linejoin="round"/><defs><linearGradient id="a" x1="54.048" y1="32.505" x2="12.949" y2="-3.739" gradientUnits="userSpaceOnUse"><stop stop-color="#D61607"/><stop offset=".49" stop-color="#F87717"/><stop offset="1" stop-color="#FECE24"/></linearGradient><linearGradient id="b" x1="40.286" y1="35.959" x2="1.2" y2="4.963" gradientUnits="userSpaceOnUse"><stop stop-color="#D61607"/><stop offset=".49" stop-color="#F87717"/><stop offset="1" stop-color="#FECE24"/></linearGradient><linearGradient id="c" x1="34.783" y1="16.276" x2="33.342" y2="10.623" gradientUnits="userSpaceOnUse"><stop stop-color="#D61607"/><stop offset=".49" stop-color="#F87717"/><stop offset="1" stop-color="#FECE24"/></linearGradient><linearGradient id="d" x1="27.635" y1="21.906" x2="26.764" y2="18.507" gradientUnits="userSpaceOnUse"><stop stop-color="#D61607"/><stop offset=".49" stop-color="#F87717"/><stop offset="1" stop-color="#FECE24"/></linearGradient></defs></svg>
